T: Bay Tree, The
M: 3/4
L: 1/8
K: Cmaj
|: B4 AB | d4 BA | G2 FG Ac | B2 A2 GA |B4 AB | d4 BA | G2 FG AB |[1 A3 :|[2 A4 GA |||: B2 GD GB | c2 AF Ac | d2 BG Bd | e4 dc |B2 GB dB | c2 Ac ec | d2 BG Bd |[1 e4 dc :|[2 e6 |]|: "G" B3 B AB | "D/B" d3 d BA | "C" G2 FG AB |  "D" B2 A2 GA |"G" B3 B AB | "D/B" d3 d BA | "C" G2 FG AB |[1 "D" D6 :|[2 "D" A4 GA |||: "G" B2 GD GB | "C/A" c2 EG ce | "D/B" d2 ^FA dg | "C" e3 e "D" dc |"G" B2 GD GB | "C/A" c2 EG ce | "D/B" d2 ^FA dg | "C" e3 g "D" dc :|e2 ee de | g4 ed | c2 Bc dg | e2 d2 cd |e2 ee de | g4 ed | c2 Bc de | G4 :|e2 cG ce | f2 Ac fa | g2 Bd gc' | a2 g2 f2 |e2 cG ce | f2 Ac fa | g2 Bd gc' | a4 gf :|
